chrome/icons/dock-right.svg

<svg height="16" viewBox="0 128 1024 768" width="16" xmlns="http://www.w3.org/2000/svg" xmlns:xlink="http://www.w3.org/1999/xlink">
  <path d="M188,896C163,896 139.083,890.917 116.25,880.75C93.4167,870.583 73.4167,856.917 56.25,839.75C39.0833,822.583 25.4167,802.583 15.25,779.75C5.08333,756.917 0,733 0,708L0,316C0,291 5.08333,267.083 15.25,244.25C25.4167,221.417 39.0833,201.417 56.25,184.25C73.4167,167.083 93.4167,153.417 116.25,143.25C139.083,133.083 163,128 188,128L836,128C861,128 884.917,133.083 907.75,143.25C930.583,153.417 950.583,167.083 967.75,184.25C984.917,201.417 998.583,221.417 1008.75,244.25C1018.92,267.083 1024,291 1024,316L1024,708C1024,733 1018.92,756.917 1008.75,779.75C998.583,802.583 984.917,822.583 967.75,839.75C950.583,856.917 930.583,870.583 907.75,880.75C884.917,890.917 861,896 836,896ZM640,832L640,192L189.5,192C172.833,192 156.917,195.417 141.75,202.25C126.583,209.083 113.25,218.25 101.75,229.75C90.25,241.25 81.0833,254.583 74.25,269.75C67.4167,284.917 64,300.833 64,317.5L64,706.5C64,723.167 67.4167,739.083 74.25,754.25C81.0833,769.417 90.25,782.75 101.75,794.25C113.25,805.75 126.583,814.917 141.75,821.75C156.917,828.583 172.833,832 189.5,832ZM834.5,832C851.167,832 867.083,828.583 882.25,821.75C897.417,814.917 910.75,805.75 922.25,794.25C933.75,782.75 942.917,769.417 949.75,754.25C956.583,739.083 960,723.167 960,706.5L960,317.5C960,300.833 956.583,284.917 949.75,269.75C942.917,254.583 933.75,241.25 922.25,229.75C910.75,218.25 897.417,209.083 882.25,202.25C867.083,195.417 851.167,192 834.5,192L704,192L704,832Z" fill="context-fill" fill-opacity="context-fill-opacity">
  </path>
</svg>

<svg xmlns="http://www.w3.org/2000/svg" width="16" height="16" viewBox="0 128 1024 768"><path fill="context-fill" fill-opacity="context-fill-opacity" d="M188 896q-37.5 0-71.75-15.25t-60-41-41-60T0 708V316q0-37.5 15.25-71.75t41-60 60-41T188 128h648q37.5 0 71.75 15.25t60 41 41 60C1018.92 267.083 1024 291 1024 316v392c0 25-5.08 48.917-15.25 71.75q-15.25 34.25-41 60t-60 41T836 896Zm452-64V192H189.5q-25 0-47.75 10.25t-40 27.5-27.5 40T64 317.5v389q0 25 10.25 47.75t27.5 40 40 27.5T189.5 832Zm194.5 0q25 0 47.75-10.25t40-27.5 27.5-40T960 706.5v-389q0-25-10.25-47.75t-27.5-40-40-27.5T834.5 192H704v640Z"/></svg>
